X: 201
T: Grants Jigg
%R: jig
Z: 2017 John Chambers <jc:trillian.mit.edu>
B: John Treat - "Gamut for the Fifes", 1779, p.10 #1
F: https://archive.org/details/GamutFortheFifes
M: 6/8
L: 1/8
K: D
% - - - - - - - - - - - - - - - - - - - - - - - - -
|:\
DFA DFA | d2d d2e | f2d Bcd | e2d cBA |\
DFA DFA | d2d d2e | fdf gec | d2d d3 :|
|:\
f2d Bcd | e2d cBA | fdf gfe | d2B B2a |\
f2d Bcd | e2d cBA | fdf gec | d2d d3 :|
% - - - - - - - - - - - - - - - - - - - - - - - - -
